X: 28721
T: My Dungannon Sweetheart
R: jig
M: 6/8
K: Dmajor
|:D3 FAd|f3 fdA|edd dAF|A>GG GFE|
Ace Ace|a3 agf|gec A>Bc|1 dFB AGF:|2 d3- d2 e||
|:f3 fdB|A3 AGF|AFB AFG|AGG GB/c/d|
g3 gec|A>ce a2 f|gec A>Bc|1 dFB A3:|2 d3 d/d/d||

